X:1
T:Jay eu coingie
T:Jay eu coingie
T:Nicolas Gombert
C:Nicolas Gombert
%%score [ 1 [ 2 3 ] 4 ]
L:1/8
Q:1/4=88
M:2/2
K:F
V:1 treble nm="Superius" snm="S"
V:2 treble-8 nm="Tenor 1" snm="T 1"
V:3 treble-8 nm="Tenor 2" snm="T 2"
V:4 bass nm="Bassus" snm="B"
V:1
 d4 B2 G2 | c2 A2 A2 A2 | B3 A G2 c2 | A2 F2 G2 A2- | AG G4 F2 | G4 z2 G2 | GA Bc d2 d2 | %7
w: J'ay eu con-|gé sans l'a- voir|me- * * ri-|té, sans l'a- voir|_ _ me- ri-|té, dont|je _ _ _ _ me|
 f2 f2 f2 ed | c2 d4 c2 | d4 z2 D2 | G2 G2 F2 F2 | B2 B2 A4 | D4 G2 G2 | F2 F2 G3 F | GA B3 G A2 | %15
w: sens plain de par- *|ple- * xi-|té, car|à tous- jours,- car|à tous- jours,|car à tous-|jours ay per _|_ _ _ _ du|
 B2 B2 A2 G2 | c2 B3 G A2 | B4 z2 c2 | c2 B2 c4 | z2 d2 d2 c2 | d4 z4 | z4 z2 B2 | c2 e2 d2 F2 | %23
w: ma mais- tres- *||se. Pour|ses ver- tus,|pour ses ver-|tus,|di-|gnes d'es- tre,- di-|
 G2 B2 A2 G2- | GF F4 E2 | F4 z2 d2 | dc BA G4 | z2 c2 cB AG | F4 B4 | A2 G2 G2 F2 | G4 d2 dc | %31
w: gne d'etre prin- ces-||se si|el- * le _ n'eust,|si el- * le _|n'eust faul-|te de cha- ri-|té, si el- *|
 BA G2 z2 c2 | cB AG F2 B2 | A2 G2 G2 F2 | G8 |] %35
w: le _ n'eust, si|el- * le _ n'eust faul-|te de cha- ri-|té.|
V:2
 z4 g4 | e2 c2 f2 d2 | d2 d2 e3 d | c2 d2 d2 d2 |"^b" e4 d4 | B2 e2 e2 e2 | d4 z2 d2 | de fg a4- | %8
w: J'ay|eu con- gé sans|l'a- voir me- ri-|té, sans l'a- voir|me- ri-|té, dont je me|sens, dont|je _ me _ sens|
 a2 a2 b2 a2 | g2 f2 ed d2- | dB c2 d3 c | d2 e2 f3 e | f2 d3 c/B/ c2 | d2 d2 c2 B2 | %14
w: _ plain de par-|ple _ _ _ xi-|* * * té, car|à tous- jours, car|à tous _ _ _|jours ay per- du|
"^b" e2 d2 c4 | B2 g2 f2 d2 | g2 f2 g2 f2 | d2 g2 g2 f2 | g3 f e2 a2 | a2 g2 a4 | z2 f2 g2 b2 | %21
w: ma mais- tres-|||se. Pour ses ver-|tus, _ _ pour|ses ver- tus,|di- gnes d'es-|
 a3 g f2 g2 |"^b""^b" e2 c2 fe dc | B2 B2 c2 e2 | d2 d2 c4 | A2 a2 ag fe | d4 z2 g2 | gf ed c4- | %28
w: tre prin- ces- *||ce, di- gnes d'es-|tre prin- ces-|ce si el- * le _|n'eust, si|el- * le _ n'eust|
 c2 d2 f2 f2 |"^b" e2 c2 d2 d2 | dc BA G4 | g2 gf ed cB | A2 c2 d2 f2 |"^b" e2 c2 d4 | d8 |] %35
w: _ faul- te de|cha- ri- té, si|el- * le _ n'eust,|si el- * le _ n'eust, _|_ faul- te de|cha- * ri-|té.|
V:3
 z8 | z4 d4 | B2 G2 c2 A2 | A2 A2 B2 A2 | B2 c2 A4 | G2 c2 c2 c2 | B2 G2 GA Bc | d2 d2 f2 f2 | %8
w: |J'ay|eu con- gé sans|l'a- voir me- *|* * ri-|té, dont je me|sens, dont je _ _ _|_ me sens plain-|
 f4 e4 | d3 c B2 A2 | B2 AG A4 | z2 G2 c2 c2 | B6 AG | A4 z4 | z8 | d4 c2 B2 |"^b" e2 d2 c4 | %17
w: de par-|ple- * * *|* xi- * té,|car à tous-||jours||ay per- du|ma mais- tres-|
 B4 z2 c2 | e2 d2 c4 | z2 d2 f2 e2 | d4 z2 G2 | AB c3 B B2- | BG A2 B4 | G4 AB c2 | A2 B2 G4 | %25
w: se. Pour|ses ver- tus,|pour ses ver-|tus di-|* * gnes d'es- tre|_ _ prin- ces-|ce, prin- * ces-||
 F2 f2 fe dc | B4 z2 e2 | ed cB A4- | A2 A2 d2 d2 | cB AG A2 A2 | G4 z2 g2 | gf ed cB AG | %32
w: ce si el- * le _|n'eust, si|el- * le _ n'eust|_ faul- te de|cha- * * * * ri-|té, si|el- * le _ n'eust _ _ _|
 F3 G A2 d2 | cB AG A2 A2 | G8 |] %35
w: _ faul- te de|cha- * * * * ri-|té.|
V:4
 z8 | z8 | G,4 E,2 C,2 | F,2 D,2 G,2 F,2 |"^b" E,2 C,2 D,4 | z2 C,2 C,D, E,F, | G,8 | %7
w: ||J'ay eu con-|gé sans l'a- voir|me- ri- té,|dont je _ me _|sens,|
 z2 D,2 D,E, F,G, | A,2 F,2 G,2 A,2 | B,3 A, G,2 F,2 |"^b" E,4 D,2 D,2 | G,2 G,2 F,4 | %12
w: dont je _ me _|sens plain de par-|ple- * * *|xi- té, car|à tous- jours,|
"^b""^b" z2 B,,2 E,2 E,2 | D,4 z2 D,2 | C,2 B,,2 F,2 F,2 | G,2 B,2 F,2 G,2 | C,2 D,2 E,2 F,2 | %17
w: car à tous-|jours ay|per- du ma mais-|tres- * se, ma|mais- * tres- *|
 G,3 G, B,2 A,2 | G,4 z2 A,2 | C2 B,2 A,4 | z2 D,2 E,2 G,2 | F,3 E, D,2 E,2 |"^b" C,4 B,,2 D,2 | %23
w: se. Pour ses ver-|tus, pour|ses ver- tus|di- gnes d'es-|tre prin- ces- *|* ce, di-|
"^b" E,2 G,2 F,2 C,2 | D,2 B,,2 C,4 | D,8 | z2 G,2 G,F, E,D, | C,4 z2 F,2 | F,E, D,C, B,,2 B,,2 | %29
w: gnes d'es- tre prin-|ces- * *|ce|si el- * le _|n'eust, si|el- * le _ n'eust faul-|
"^b" C,2 E,2 D,2 D,2 | G,2 D2 DC B,A, | G,4 z2 A,2 | A,G, F,E, D,2 B,,2 |"^b" C,2 E,2 D,2 D,2 | %34
w: te de cha- ri-|té, si el- * le _|n'eust, si|el- * le _ n'eust faul-|te de cha- ri-|
 G,8 |] %35
w: té.|

